X: 6530
T: Catch Me If You Can
R: jig
M: 6/8
K: Gmajor
|:~G3 Bdg|edB A2B|dge dBG|AGE GED|
~G3 Bdg|ede g2f|edB AGA|BGF G3:|
|:~e3 efg|efg edB|ege dBG|AGE GAB|
~e3 efg|aba ged|edB dBA|GFG G3:|

